packages/astro-components-stencil/src/icons/g-translate.svg

<svg xmlns="http://www.w3.org/2000/svg" viewBox="0 0 24 24"><g xmlns="http://www.w3.org/2000/svg" id="g-translate" fill-rule="nonzero">
            <path d="M20 5h-9.12L10 2H4c-1.1 0-2 .9-2 2v13c0 1.1.9 2 2 2h7l1 3h8c1.1 0 2-.9 2-2V7c0-1.1-.9-2-2-2zM7.17 14.59c-2.25 0-4.09-1.83-4.09-4.09s1.83-4.09 4.09-4.09c1.04 0 1.99.37 2.74 1.07l.07.06-1.23 1.18-.06-.05c-.29-.27-.78-.59-1.52-.59-1.31 0-2.38 1.09-2.38 2.42 0 1.33 1.07 2.42 2.38 2.42 1.37 0 1.96-.87 2.12-1.46H7.08V9.91h3.95l.01.07c.04.21.05.4.05.61 0 2.35-1.61 4-3.92 4zm6.03-1.71c.33.6.74 1.18 1.19 1.7l-.54.53-.65-2.23zm.77-.76h-.99l-.31-1.04h3.99s-.34 1.31-1.56 2.74c-.52-.62-.89-1.23-1.13-1.7zM21 20c0 .55-.45 1-1 1h-7l2-2-.81-2.77.92-.92L17.79 18l.73-.73-2.71-2.68c.9-1.03 1.6-2.25 1.92-3.51H19v-1.04h-3.64V9h-1.04v1.04h-1.96L11.18 6H20c.55 0 1 .45 1 1v13z"/>
        </g></svg>

<svg width="24" height="24" viewBox="0 0 24 24" fill="none" xmlns="http://www.w3.org/2000/svg">
<path fill-rule="evenodd" clip-rule="evenodd" d="M20 5H10.88L10 2H4C2.9 2 2 2.9 2 4V17C2 18.1 2.9 19 4 19H11L12 22H20C21.1 22 22 21.1 22 20V7C22 5.9 21.1 5 20 5ZM7.17 14.59C4.92 14.59 3.08 12.76 3.08 10.5C3.08 8.24 4.91 6.41 7.17 6.41C8.21 6.41 9.16 6.78 9.91 7.48L9.98 7.54L8.75 8.72L8.69 8.67C8.4 8.4 7.91 8.08 7.17 8.08C5.86 8.08 4.79 9.17 4.79 10.5C4.79 11.83 5.86 12.92 7.17 12.92C8.54 12.92 9.13 12.05 9.29 11.46H7.08V9.91H11.03L11.04 9.98C11.08 10.19 11.09 10.38 11.09 10.59C11.09 12.94 9.48 14.59 7.17 14.59ZM14.39 14.58C13.94 14.06 13.53 13.48 13.2 12.88L13.85 15.11L14.39 14.58ZM13.97 12.12H12.98L12.67 11.08H16.66C16.66 11.08 16.32 12.39 15.1 13.82C14.58 13.2 14.21 12.59 13.97 12.12ZM20 21C20.55 21 21 20.55 21 20V7C21 6.45 20.55 6 20 6H11.18L12.36 10.04H14.32V9H15.36V10.04H19V11.08H17.73C17.41 12.34 16.71 13.56 15.81 14.59L18.52 17.27L17.79 18L15.11 15.31L14.19 16.23L15 19L13 21H20Z" fill="black"/>
</svg>
